svg/icon/nebl.svg

<svg height="32" viewBox="0 0 32 32" width="32" xmlns="http://www.w3.org/2000/svg" xmlns:xlink="http://www.w3.org/1999/xlink"><defs><linearGradient id="a" x1="50%" x2="50%" y1="0%" y2="100%"><stop offset="0" stop-color="#fff" stop-opacity=".5"/><stop offset="1" stop-opacity=".5"/></linearGradient><circle id="b" cx="16" cy="15" r="15"/><filter id="c" height="111.7%" width="111.7%" x="-5.8%" y="-4.2%"><feOffset dy=".5" in="SourceAlpha" result="shadowOffsetOuter1"/><feGaussianBlur in="shadowOffsetOuter1" result="shadowBlurOuter1" stdDeviation=".5"/><feComposite in="shadowBlurOuter1" in2="SourceAlpha" operator="out" result="shadowBlurOuter1"/><feColorMatrix in="shadowBlurOuter1" values="0 0 0 0 0   0 0 0 0 0   0 0 0 0 0  0 0 0 0.199473505 0"/></filter><path id="d" d="m20.3594663 12.6609039v4.7349679l.0000985.0470513-4.306798 2.3675611v-4.7820652zm5.1405337-1.226628v7.1311813c-.0007851.5065855-.1402986 1.0029618-.4029378 1.4336159-.2605202.4294024-.6373199.7948981-1.1040674 1.0514383l-3.2120829 1.7657963v-4.7075236l.4058912-.2231869v-5.6781667l3.9345751-2.162973c.2436529.4186754.3786218.8949474.3786218 1.3898184zm-17.49319171 9.6163355c-.45017924-.2471787-.81589685-.5971456-1.07480751-1.0071069-.27744119-.4390083-.43200078-.9479784-.43200078-1.4779473v-3.5315926-1.0339646l4.4235544 3.4546225v.1926886l.0077772.1976884.3432798.2030881 4.41608 2.4278075.3644381.2003382v4.3231462c-.5444609.0108573-1.0824944-.120937-1.5622331-.3826775zm-.18419171-11.99089611 4.67738342-2.55971529 3.1800003 3.07999992-4.7564459 2.62273088v.3993765l-4.41370984 2.4261576-.00984456-3.593989c.00083338-.5076305.14094639-1.004978.4046114-1.4362157.23219586-.37927906.54606391-.70012616.91800518-.93834491zm16.17037822-.1106935c.482285.26538442.8676011.64706201 1.1283834 1.09533571l-3.9345751 2.162973v-.0362979l-.4059896-.2230869-4.3335752-2.38236011 4.3335752-2.38226015zm-17.48305179 6.07934311 4.41361139-2.4261576v4.8523152zm9.54528499-5.64806843v-4.37974288c.5069603.00751533 1.0047105.13872873 1.451285.38257754l3.2740051 1.79989433-4.3334766 2.38236014zm-.3644456.20048823-4.4081969-2.42315775 3.4028705-1.87069018c.4299712-.1974304.8977914-.29525331 1.3695751-.28638318v4.38024285zm.3920103 11.1106477.3644456-.1999882 4.2818912 2.3537618-3.2223212 1.771296c-.4466624.2439337-.9445046.3752476-1.4515803.3828775v-4.3230462zm4.6980208-2.5825483v4.7074236l-.051684.0284983-4.2818912-2.3537618z"/><filter id="e" height="117.5%" width="118.4%" x="-9.2%" y="-6.2%"><feOffset dy=".5" in="SourceAlpha" result="shadowOffsetOuter1"/><feGaussianBlur in="shadowOffsetOuter1" result="shadowBlurOuter1" stdDeviation=".5"/><feColorMatrix in="shadowBlurOuter1" values="0 0 0 0 0   0 0 0 0 0   0 0 0 0 0  0 0 0 0.204257246 0"/></filter></defs><g fill="none" fill-rule="evenodd"><use fill="#000" filter="url(#c)" xlink:href="#b"/><use fill="#50479e" xlink:href="#b"/><use fill="url(#a)" xlink:href="#b"/><circle cx="16" cy="15" r="14.5" stroke="#000" stroke-opacity=".097"/><g fill-rule="nonzero"><use fill="#000" filter="url(#e)" xlink:href="#d"/><use fill="#fff" fill-rule="evenodd" xlink:href="#d"/></g></g></svg>

<svg xmlns="http://www.w3.org/2000/svg" xmlns:xlink="http://www.w3.org/1999/xlink" width="32" height="32" viewBox="0 0 32 32">
  <defs>
    <linearGradient id="nebl-c" x1="50%" x2="50%" y1="0%" y2="100%">
      <stop offset="0%" stop-color="#FFF" stop-opacity=".5"/>
      <stop offset="100%" stop-opacity=".5"/>
    </linearGradient>
    <circle id="nebl-b" cx="16" cy="15" r="15"/>
    <filter id="nebl-a" width="111.7%" height="111.7%" x="-5.8%" y="-4.2%" filterUnits="objectBoundingBox">
      <feOffset dy=".5" in="SourceAlpha" result="shadowOffsetOuter1"/>
      <feGaussianBlur in="shadowOffsetOuter1" result="shadowBlurOuter1" stdDeviation=".5"/>
      <feComposite in="shadowBlurOuter1" in2="SourceAlpha" operator="out" result="shadowBlurOuter1"/>
      <feColorMatrix in="shadowBlurOuter1" values="0 0 0 0 0   0 0 0 0 0   0 0 0 0 0  0 0 0 0.199473505 0"/>
    </filter>
    <path id="nebl-e" d="M20.3594663,12.6609039 L20.3594663,17.3958718 L20.3595648,17.4429231 L16.0527668,19.8104842 L16.0527668,15.028419 L20.3594663,12.6609039 Z M25.5,11.4342759 L25.5,18.5654572 C25.4992149,19.0720427 25.3597014,19.568419 25.0970622,19.9990731 C24.836542,20.4284755 24.4597423,20.7939712 23.9929948,21.0505114 L20.7809119,22.8163077 L20.7809119,18.1087841 L21.1868031,17.8855972 L21.1868031,12.2074305 L25.1213782,10.0444575 C25.3650311,10.4631329 25.5,10.9394049 25.5,11.4342759 Z M8.00680829,21.0506114 C7.55662905,20.8034327 7.19091144,20.4534658 6.93200078,20.0435045 C6.65455959,19.6044962 6.5,19.0955261 6.5,18.5655572 L6.5,15.0339646 L6.5,14 L10.9235544,17.4546225 L10.9235544,17.6473111 L10.9313316,17.8449995 L11.2746114,18.0480876 L15.6906914,20.4758951 L16.0551295,20.6762333 L16.0551295,24.9993795 C15.5106686,25.0102368 14.9726351,24.8784425 14.4928964,24.616702 L8.00680829,21.0506114 Z M7.82261658,9.05971529 L12.5,6.5 L15.6800003,9.57999992 L10.9235544,12.2027308 L10.9235544,12.6021073 L6.50984456,15.0282649 L6.5,11.4342759 C6.50083338,10.9266454 6.64094639,10.4292979 6.9046114,9.9980602 C7.13680726,9.61878114 7.45067531,9.29793404 7.82261658,9.05971529 Z M23.9929948,8.94902179 C24.4752798,9.21440621 24.8605959,9.5960838 25.1213782,10.0443575 L21.1868031,12.2073305 L21.1868031,12.1710326 L20.7808135,11.9479457 L16.4472383,9.56558559 L20.7808135,7.18332544 L23.9929948,8.94902179 Z M6.50994301,15.0283649 L10.9235544,12.6022073 L10.9235544,17.4545225 L6.50994301,15.0283649 Z M16.055228,9.38029647 L16.055228,5.00055359 C16.5621883,5.00806892 17.0599385,5.13928232 17.506513,5.38313113 L20.7805181,7.18302546 L16.4470415,9.5653856 L16.055228,9.38029647 Z M15.6907824,9.5807847 L11.2825855,7.15762695 L14.685456,5.28693677 C15.1154272,5.08950637 15.5832474,4.99168346 16.0550311,5.00055359 L16.0550311,9.38079644 L15.6907824,9.5807847 Z M16.0827927,20.6914324 L16.4472383,20.4914442 L20.7291295,22.845206 L17.5068083,24.616502 C17.0601459,24.8604357 16.5623037,24.9917496 16.055228,24.9993795 L16.055228,20.6763333 L16.0827927,20.6914324 Z M20.7808135,18.1088841 L20.7808135,22.8163077 L20.7291295,22.844806 L16.4472383,20.4910442 L20.7808135,18.1088841 Z"/>
    <filter id="nebl-d" width="118.4%" height="117.5%" x="-9.2%" y="-6.2%" filterUnits="objectBoundingBox">
      <feOffset dy=".5" in="SourceAlpha" result="shadowOffsetOuter1"/>
      <feGaussianBlur in="shadowOffsetOuter1" result="shadowBlurOuter1" stdDeviation=".5"/>
      <feColorMatrix in="shadowBlurOuter1" values="0 0 0 0 0   0 0 0 0 0   0 0 0 0 0  0 0 0 0.204257246 0"/>
    </filter>
  </defs>
  <g fill="none" fill-rule="evenodd">
    <use fill="#000" filter="url(#nebl-a)" xlink:href="#nebl-b"/>
    <use fill="#50479E" xlink:href="#nebl-b"/>
    <use fill="url(#nebl-c)" style="mix-blend-mode:soft-light" xlink:href="#nebl-b"/>
    <circle cx="16" cy="15" r="14.5" stroke="#000" stroke-opacity=".097"/>
    <g fill-rule="nonzero">
      <use fill="#000" filter="url(#nebl-d)" xlink:href="#nebl-e"/>
      <use fill="#FFF" fill-rule="evenodd" xlink:href="#nebl-e"/>
    </g>
  </g>
</svg>
